X:151
T: ICH HAB EIN KLEINES MURMELTIER
N: K2256
O: Europa, Mitteleuropa, Deutschland, Brandenburg
R: Kinder - Lied, Reigen, Tanz, Nachahmungs - Spiel
M: 2/4
L: 1/8
K: F
F | cccd | cBA
F | cccd | c2A
F | cccd | cBA
F | dcBA | G2F
F | cccd | c2A
F | cccd | cBA
F | dcBA | G2F
F | cccd | cBA
F | dcBA | G2F

